X:1
T:Johann Sebastian Bach: 
T:Nr.3
T:Matthäus-Passion
%%score [ 1 2 3 4 ]
L:1/8
Q:1/4=120
M:4/4
K:D
V:1 treble nm="Sopran"
V:2 treble nm="Alt"
V:3 treble-8 nm="Tenor"
V:4 bass nm="Baß"
V:1
 B2 | B2 B2 (^A^G) F2 | B2 c2 d2 d2 | (e2 d2) c2 c2 |[M:4/4] d2 e2 (fe) d2 | g2 g2 (fe) f2 | %6
w: Herz-|lieb- ster Je * su,|was hast du ver-|bro- * chen, daß|man ein solch * scharf|Ur- teil hat * ge-|
 e4 !fermata!d2 d2 | c2 B2 A2 (FG) | A2 A2 B2 A2 | G4 !fermata!F2 f2 | e2 d2 c4 | !fermata!B6 |] %12
w: spro- chen? Was|ist die Schuld, in *|was für Mis- se-|ta- ten bist|du ge- ra-|ten?|
V:2
 F2 | G2 (DE) F2 C2 | F2 F2 F2 F2 | F4 F2 F2 |[M:4/4] F2 A2 A2 (BA) | G2 A2 A2 (dc) | %6
w: Herz-|lieb- ster * Je- su,|was hast du ver-|bro- chen, daß|man ein solch scharf *|Ur- teil hat ge *|
 (B2 AG) !fermata!F2 F2 | E2 D2 E2 (DE) | F2 F2 G2 F2 | (F^D E2) !fermata!E2 =D2 | G2 F2 (F3 E) | %11
w: spro * * chen? Was|ist die Schuld, in *|was für Mis- se-|ta * * ten bist|du ge- ra- *|
 !fermata!^D6 |] %12
w: ten?|
V:3
 d2 | e2 B2 (cB) ^A2 | B2 ^A2 (Bc) d2 | (c2 B2) ^A2 A2 |[M:4/4] B2 c2 (dc) (Bc) | d2 e2 e2 d2 | %6
w: Herz-|lieb- ster Je- * su,|was hast du * ver-|bro- * chen, daß|man ein solch * scharf *|Ur- teil hat ge-|
 (d2 c2) !fermata!A2 (BA) | G2 (GF) (EA) A2 | d2 d2 d2 ^B2 | (B3 ^A/B/) !fermata!^c2 B2 | %10
w: spro * chen? Was *|ist die * Schuld * in|was für Mis- se-|ta * * ten bist|
 (B^A) B2 (B2 A2) | !fermata!F6 |] %12
w: du * ge- ra- *|ten?|
V:4
 B,2 | (E,F,) G,2 F,2 (F,E,) | D,2 F,2 B,,2 B,2 | (^A,2 B,2) F,2 F,2 |[M:4/4] B,2 =A,2 D,2 (G,A,) | %5
w: Herz-|lieb * ster Je- su, *|was hast du ver-|bro- * chen, daß|man ein solch scharf *|
 B,2 C2 (DC) (B,A,) | (G,2 A,2) !fermata!D,2 B,,2 | (E,F,) G,2 C,2 D,2 | %8
w: Ur- teil hat * ge- *|spro- * chen? Was|ist * die Schuld, in|
 (D=C) (B,A,) (G,F,) (E,^D,) | E,4 !fermata!^A,,2 B,,2 | C,2 (D,E,) F,4 | !fermata!B,,6 |] %12
w: was * für * Mis * se- *|ta- ten bist|du ge- * ra-|ten?|

